!!!COM: Bach, Johann Sebastian
!!!CDT: 1685/3//-1750/7/28/
!!!OTL@@DE: Herr Christ, der ein'ge Gott's Sohn
!!!AGN: 4-Part Chorale
!!!SCT: BH 101
!!!SCT: BWV 164
**harm	**root	**kern	**kern	**kern	**kern
*	*Iorgan	*Iorgan	*Iorgan	*Iorgan	*Iorgan
!	!	!bass	!tenor	!alto	!soprno
*M4/4	*M4/4	*M4/4	*M4/4	*M4/4	*M4/4
*met(c)	*met(c)	*met(c)	*met(c)	*met(c)	*met(c)
*MM60	*MM60	*MM60	*MM60	*MM60	*MM60
*k[b-e-a-d-g-c-f-]	*k[b-e-a-d-g-c-f-]	*k[b-e-a-d-g-c-f-]	*k[b-e-a-d-g-c-f-]	*k[b-e-a-d-g-c-f-]	*k[b-e-a-d-g-c-f-]
*C-:	*C-:	*C-:	*C-:	*C-:	*C-:
*>[A,A,B]	*>[A,A,B]	*>[A,A,B]	*>[A,A,B]	*>[A,A,B]	*>[A,A,B]
*>A	*>A	*>A	*>A	*>A	*>A
I	4BB-	4c-	4e-	4g-	4cc-
=1	=1	=1	=1	=1	=1
IV	4EE-	4F-	4f-	8a-	8cc-
.	.	.	.	8b-	8dd-
I	4BB-	4C-	4g-	4cc-	4ee-
V	4FF	4G-	8g-	4b-	4dd-
.	.	.	8f-	.	.
vi	4GG	4A-	4e-	4a-	4cc-
=2	=2	=2	=2	=2	=2
viio7b	4AA	4D-	4f-	4a-	2b-
V/vi	4DD	4E-	8e-	4g	.
.	.	.	8d-	.	.
IV;	4EE-;	4F-;	4c-;	4a-;	4a-;
vi	4GG	4A-	4c-	4a-	4ee-
=3	=3	=3	=3	=3	=3
ii7	4CC	4D-	4c-	4a-	4ff-
V	4FF	8G-	4B-	4g-	4dd-
.	.	8F-	.	.	.
Ib	4BB-	8E-	4c-	4g-	4ee-
.	.	8F-	.	.	.
V	4FF	4G-	8c-	4g-	4dd-
.	.	.	8B-	.	.
=4	=4	=4	=4	=4	=4
I;	2.BB-;	2.C-;	2.e-;	2.g-;	2.cc-;
*>B	*>B	*>B	*>B	*>B	*>B
=:|!	=:|!	=:|!	=:|!	=:|!	=:|!
I	4BB-	4C-	8e-	4g-	8cc-
.	.	.	8f-	.	8dd-
!!linebreak: 2
=5	=5	=5	=5	=5	=5
I	4BB-	8c-	4g-	4cc-	4ee-
.	.	8B-	.	.	.
vi	4GG	8A-	4a-	8cc-	4ee-
.	.	8G-	.	8b-	.
IV	4EE-	8F-	8a-	4a-	4ff-
.	.	8E-	8g-	.	.
ii	4CC	8D-	8f-	4a-	4ff-
.	.	8C-	8e-	.	.
=6	=6	=6	=6	=6	=6
Vb	4FF	4BB-	4d-	2g-	4gg-
I	4BB-	4C-	4c-	.	8ff-
.	.	.	.	.	8ee-
V;	4FF;	4GG-;	4B-;	4g-;	4dd-;
Vb	4FF	4BB-	4d-	4g-	4gg-
=7	=7	=7	=7	=7	=7
I	4BB-	8C-	4c-	4g-	4ee-
.	.	8D-	.	.	.
Ib	4BB-	8E-	4c-	4g-	4ee-
.	.	8F-	.	.	.
V	8FF	8G-	4B-	8g-	4dd-
viioD7/vi	8FF#	8G	.	8f-	.
vi	8GG	8A-	8B-	4e-	4cc-
vib	8GG	8C-	8A-	.	.
=8	=8	=8	=8	=8	=8
viio7b	4AA	8D-	4A-	8f-	2b-
.	.	8BB-	.	8d-	.
V/vi	4DD	4E-	4G	4e-	.
vi;	4GG;	4AA-;	4c-;	4e-;	4a-;
V/ii	4GG	4A-	4c	4a-	4ee-
=9	=9	=9	=9	=9	=9
ii	4CC	8d-	8d-	4a-	4ff-
.	.	8c-	8e-	.	.
V7b	4FF	8B-	8f-	4g-	4dd-
.	.	8G-	8B-	.	.
I	4BB-	8c-	4c-y	8g-	4ee-
.	.	8F-	.	8a-	.
V	4FF	8G-	8g-	4b-	4dd-
.	.	8GG-	8f-	.	.
=10	=10	=10	=10	=10	=10
I;	2.BB-;	2.C-;	2.e-;	2.g-;	2.cc-;
==	==	==	==	==	==
*-	*-	*-	*-	*-	*-
!!chor2scor: -l 2 -s 0.6 -o %b.pmx
!!!YEC: Copyright 1994, David Huron
!!!YEC: Changes/Additions 2001 by Craig Stuart Sapp
!!!YEN: United States of America
!!!SMA: 371 Bach Chorales, edited by Ludwig Erk, C.F. Peters
!!!PDT: 1850, 1865
!!!ONB: Harmony and Root analysis done manually
